X:1
T:Tmeiskin
T:Tmeiskin
T:(modern notation)
T:Jean Japart (fl. 1474-1507)
T:by Mutopia-2010/01/09-1734 - public domain
T:by Mutopia-2010/01/09-1734 - public domain
T:by Mutopia-2010/01/09-1734 - public domain
C:Jean Japart (fl. 1474-1507)
Z:by Mutopia-2010/01/09-1734 - public domain
%%score [ 1 2 3 4 ]
L:1/8
Q:1/4=190
M:2/2
K:F
V:1 treble nm="Discantus"
V:2 treble-8 nm="Altus"
V:3 treble-8 nm="Tenor"
V:4 bass nm="Bassus"
V:1
 G4 G2 G2 | G8 | G8 | B6 AG | F8 | A4 A4 | c6 B2 | A4 G4 | G4 ^F4 | G8 | z4 G4 | B4 B4 | B4 A4- | %13
 A4 d4- | d4 ^c4 | d6 c2 | B4 A4 | B6 AG | F2 B4 A2 | B2 G4 A2 | AG^FE ^F4 | G8 | z4 D4 | E4 E4 | %24
 D3 E F2 G2- | G2 E4 A2 | F2 B4 A2- | A2 GF G4 | A4 z2 A2 | c6 B2 | A4 G2 A2 | A2 c3 B A2- | %32
 A2 GF E4 | D8 | z4 D4 | F6 G2 | A2 B2 c4- | c2 B2 B4- | B2 AG A2 GA | B8 | z4 F4 | B4 A4 | G4 G4 | %43
 c6 B2 | A2 B4 A2 | G2 B3 A G2- | G2 ^F^E F4 | G8 |] %48
V:2
 z8 | z8 | z8 | d4 d2 d2 | d8 | f6 ed | c8 | f4 d4- | d2 d2 d4 | B6 c2 | d2 _e4 dc | d4 d4- | %12
 d2 e2 f4 | f4 a4- | a2 gf e2 a2 | f8 | z4 f4 | d4 B4 | f4 f4 | d2 e4 c2- | c2 d4 d2- | d2 _e4 dc | %22
 B2 c2 d4 | G4 c4 | F2 B4 G2- | G2 c4 A2- | A2 G2 d4- | d2 _e2 d4 | f4 f4 | f4 f4 | f4 z2 f2- | %31
 f2 e4 f2- | f2 a2 a4 | f8- | f8 | d4 B4 | c8 | z8 | f8 | d6 ef | g2 f2 d4- | d4 f4 | _e4 e4 | %43
 c2 f2 d2 g2 | f2 g3 f f2 | d4 _e4 | d8 | d8 |] %48
V:3
 z8 | G4 G2 G2 | G8 | G8 | B6 AG | F8 | A4 A4 | c6 B2 | A4 A4 | G8- | G8 | z4 G4 | B4 c4 | d4 f4 | %14
 e4 e4 | d8- | d8 | z4 d4 | d4 c2 c2 | B4 c4 | A4 A4 | G8- | G8 | z4 G4 | B4 B4 | c4 c4 | d6 c2 | %27
 B4 B4 | A8 | z4 A4 | c4 c4 | c4 c2 c2 | c4 c4 | d8- | d8 | c4 d4 | f6 e2 | d4 B4 | c4 c4 | B8- | %40
 B8 | z4 F4 | B4 B4 | A4 G4 | d6 c2 | B4 c4 | A4 A4 | G8 |] %48
V:4
 G,,6 A,,2 | B,,2 C,4 B,,2 | A,,6 B,,2 | G,,8 | z8 | D,6 C,B,, | A,,4 F,4- | F,2 E,2 G,4 | D,8 | %9
 _E,6 D,C, | B,,2 C,4 B,,A,, | G,,4 G,4- | G,4 F,4 | D,8 | A,8 | B,6 A,2 | G,4 F,4 | G,6 F,E, | %18
 D,3 C, F,4 | G,2 E,4 F,2- | F,E,D,C, D,4 | B,,2 C,2- C,D, _E,2- | E,2 D,C, B,,4 | C,4 C,4 | %24
 B,,3 C, D,2 E,2- | E,2 C,4 F,2 | D,2 G,3 D, F,2 | G,2 _E,2 G,4 | D,4 F,4 | F,4 F,4 | %30
 F,4 E,2 F,2- | F,2 A,3 G, F,2- | F,2 E,D, A,4 | B,8- | B,8 | B,6 A,G, | F,8 | G,8 | F,8 | %39
 B,,6 C,D, | _E,2 D,3 C,B,,A,, | G,,4 D,4 | _E,8 | F,4 G,4 | D,2 G,3 D, F,2 | G,4 C,4 | D,8 | %47
 G,,8 |] %48

